X:1
T:Giessen, 88.88.88
T:Giessen, 88.88.88
T:Anonymous
T:Public Domain Courtesy of the Cyber Hymnal™
C:Anonymous
Z:Public Domain
Z:Courtesy of the Cyber Hymnal™
%%score ( 1 2 ) ( 3 4 )
L:1/8
M:3/4
K:D
V:1 treble 
V:2 treble 
V:3 bass 
V:4 bass 
V:1
 [DF]2 | (F2 D2) [DA]2 | (A2 F2) [Fd]2 | (d2 c2) [=EB]2 | [FA]4 [EG]2 | ([DF]2 [CE]2) D2 | %6
 B4 [FA]2 | ([EA]2 [CG]2) [DF]2 | [CE]4 [DF]2 | (F2 D2) [DA]2 | (A2 F2) [Fd]2 | (d2 c2) [EB]2 | %12
 [Ec]4 [Ad]2 | ([Ae]2 [FA]2) [Fd]2 | (d2 c2) [EB]2 | [Ec]4 [DB]2 | [CA]4 [CA]2 | (A2 F2) [=DF]2 | %18
 [EG]4 [DG]2 | (G2 E2) [CE]2 | [DF]4 [DF]2 | [DF]2 [CE]2 D2 | ([DB]2 [Ec]2) [Dd]2 | (G2 F2) [CE]2 | %24
 D4 |] %25
V:2
 x2 | D4 x2 | D4 x2 | ^E4 x2 | x6 | x4 D2 | (D2 E2) x2 | x6 | x6 | D4 x2 | D4 x2 | E4 x2 | x6 | %13
 x6 | E4 x2 | x6 | x6 | ^D4 x2 | x6 | C4 x2 | x6 | x4 D2 | x6 | D4 x2 | D4 |] %25
V:3
 [D,A,]2 | (A,2 F,2) [D,F,]2 | F,2 A,2 [D,A,]2 | [D,^G,]4 [D,G,]2 | [D,A,]4 [C,A,]2 | %5
 ([D,A,]2 [E,G,]2) [F,A,]2 | (B,2 C2) [F,D]2 | A,4 [D,A,]2 | [A,,A,]4 [D,A,]2 | (A,2 F,2) [D,F,]2 | %10
 (F,2 A,2) [D,A,]2 | ^G,2 A,2 [E,G,]2 | A,4 [F,A,]2 | A,4 [B,,A,]2 | [E,^G,]2 [F,A,]2 [G,B,]2 | %15
 A,4 [E,^G,]2 | [A,,A,]4 [A,,A,]2 | (F,2 B,2) [B,,A,]2 | [E,G,]4 [E,_B,]2 | [A,,A,]4 [A,,G,]2 | %20
 [D,F,]4 [D,A,]2 | [D,A,]2 [E,G,]2 [F,A,]2 | ([G,B,]2 [E,G,]2) [F,A,]2 | (B,2 A,2) [A,,G,]2 | %24
 [D,F,]4 |] %25
V:4
 x2 | D,4 x2 | D,4 x2 | x6 | x6 | x6 | G,4 x2 | (C,2 E,2) x2 | x6 | D,4 x2 | D,4 x2 | E,4 x2 | %12
 A,4 x2 | (C,2 D,2) x2 | x6 | A,4 x2 | x6 | B,,4 x2 | x6 | x6 | x6 | x6 | x6 | G,4 x2 | x4 |] %25

